X:1
T: Angus Macleod
C:
R:Reel
I:speed 232
Q:232
K:G
M:4/4
L:1/8
D|G4 G3A|B2d2 B4|G4 G3A|B2d2 c4|A4 A3B|c2d2 c4|f3e d2c2|B2A2 G3D|
G4 G3A|B2d2 B4|G4 G3A|B2d2 c4|A4 A3B|c2d2 c4|f3e d2c2|B2A2 G4|
g4 g3f|e2d2 B4|d4 d3e|d2B2 A4|G4 G3A|B2G2 c4|f3e d2c2|B2A2 G4|
g4 g3f|e2d2 B4|d4 d3e|d2B2 A4|G4 G3A|B2G2 c4|f3e d2c2|B2A2 G2||
